!!!COM:	Compere, Loyset
!!!CDT:	~1445///-1518/08/16
!!!OTL:	Vray Dieu quel payne messe
!!!AGN:	Song; Chanson
!!!SCT:	Com3050
!!!SCA:	Com3050
!!!voices:	4
**kern	**kern	**kern	**kern
*staff4	*staff3	*staff2	*staff1
*Ivox	*Ivox	*Ivox	*Ivox
*I"Bassus	*I"Tenor	*I"Altus	*I"Superius
*I'B	*I'T	*I'A	*I'S
*clefF4	*clefGv2	*clefGv2	*clefG2
*k[b-]	*k[b-]	*k[b-]	*k[b-]
*M2/1	*M2/1	*M2/1	*M2/1
*met(C|)	*met(C|)	*met(C|)	*met(C|)
=1-	=1-	=1-	=1-
0r	0r	0G	0r
=2	=2	=2	=2
0r	0r	1G	0g
.	.	1G	.
=3	=3	=3	=3
0r	0G	1d	1g
.	.	[1d	1dd
=4	=4	=4	=4
0r	1G	2d]	1dd
.	.	2e	.
.	1d	1f	1dd
=5	=5	=5	=5
0G	1d	1.g	1.dd
.	1d	.	.
.	.	2f	2cc
=6	=6	=6	=6
0G	0d	2g	2b-
.	.	2d	2a
.	.	[1g	1b-
=7	=7	=7	=7
1A	1.c	2g]	0cc
.	.	4f	.
.	.	4e	.
1F	.	[1f	.
.	4B-	.	.
.	4A	.	.
=8	=8	=8	=8
0G	1B-	2f]	0r
.	.	4e	.
.	.	4d	.
.	1B-	1e	.
=9	=9	=9	=9
[0F	0c	0f	0r
=10	=10	=10	=10
0F]	0r	0a	0ff
=11	=11	=11	=11
1c	0r	1g	1ee
1d	.	1f	1dd
=12	=12	=12	=12
0A	0r	0e	1dd
.	.	.	1cc#i
=13	=13	=13	=13
1.B-	0f	0d	0dd
2A	.	.	.
=14	=14	=14	=14
1G	1e	0r	0r
1F	1d	.	.
=15	=15	=15	=15
0E	1d	0r	0r
.	1c#i	.	.
=16	=16	=16	=16
1.D	[0d	1.f	1r
.	.	.	1dd
2E	.	2g	.
=17	=17	=17	=17
1F	0d]	1a	1dd
1G	.	[1g	1dd
=18	=18	=18	=18
0A	0r	2g]	1cc
.	.	4f#i	.
.	.	4e	.
.	.	1f#i	1a
=19	=19	=19	=19
[0G	0r	1g	1.b-
.	.	[1d	.
.	.	.	2a
=20	=20	=20	=20
0G]	1r	2d]	0g
.	.	2c	.
.	1d	1B-	.
=21	=21	=21	=21
1.D	1d	0A	0f
.	1d	.	.
2E	.	.	.
=22	=22	=22	=22
0F	1c	2.A	0r
.	.	4B-	.
.	1A	1c	.
=23	=23	=23	=23
1.G	1.B-	2B-	0r
.	.	2.d	.
.	.	4e	.
2A	2A	[2f	.
=24	=24	=24	=24
0B-	1G	2f]	0r
.	.	4e	.
.	.	4d	.
.	1G	1e	.
=25	=25	=25	=25
1c	0F	[0f	1.a
[1F	.	.	.
.	.	.	2b-
=26	=26	=26	=26
2F]	0r	1f]	1cc
2G	.	.	.
1A	.	1e	1cc
=27	=27	=27	=27
1.B-	0r	1.d	0dd
4A	.	2e	.
4G	.	.	.
=28	=28	=28	=28
1A	0r	1f	1cc
1G	.	1g	1b-
=29	=29	=29	=29
0F	1.A	0c	1a
.	.	.	1a
.	2B-	.	.
=30	=30	=30	=30
0C	0c	1.e	1.g
.	.	2f	2a
=31	=31	=31	=31
1G	0d	1g	1b-
1D	.	[1f	[1a
=32	=32	=32	=32
1F	1c	2f]	2a]
.	.	2e	2g
1G	1B-	2d	[1g
.	.	2c	.
=33	=33	=33	=33
0D	0A	0d	1g]
.	.	.	1f#i
=34	=34	=34	=34
*M3/1	*M3/1	*M3/1	*M3/1
*met(O/3)	*met(O/3)	*met(O/3)	*met(O/3)
0.G	0.G	1d	0g
.	.	1e	.
.	.	1g	1g
=35	=35	=35	=35
0.B-	1r	0f	0dd
.	1r	.	.
.	1G	1d	1dd
=36	=36	=36	=36
0.G	0d	0g	0dd
.	1d	1g	1dd
=37	=37	=37	=37
1.D	0d	0.f	1.dd
2E	.	.	2cc
1F	1d	.	1a
=38	=38	=38	=38
0G	0d	1d	0b-
.	.	1.g	.
1A	1c	.	[1a
.	.	2f	.
=39	=39	=39	=39
1F	1A	0f	1a]
0G	0B-	.	0g
.	.	1e	.
=40	=40	=40	=40
0F	0.c	0f	0a
[1A	.	1e	[1cc
=41	=41	=41	=41
1A]	0.f	1c	1cc]
0B-	.	1f	0dd
.	.	1d	.
=42	=42	=42	=42
0c	0e	1g	0cc
.	.	1.a	.
1B-	1d	.	1dd
.	.	2g	.
=43	=43	=43	=43
1G	1d	0g	1b-
0A	0c	.	1cc
.	.	1f#i	1a
=44	=44	=44	=44
0.G	0d	0.g	0b-
.	1d	.	1b-
=45	=45	=45	=45
0.B-	0d	[0.f	1.dd
.	.	.	2cc
.	1d	.	1b-
=46	=46	=46	=46
0.F	0c	0.f]	0a
.	1A	.	1a
=47	=47	=47	=47
1.G	1.B-	0d	0g
2A	2A	.	.
1B-	1G	1e	1g
=48	=48	=48	=48
0c	0F	1.f	0a
.	.	2e	.
1B-	1G	1d	1g
=49	=49	=49	=49
1c	1.A	1c	0cc
0A	.	1e	.
.	2B-	.	.
.	1c	1f	1cc
=50	=50	=50	=50
1G	0d	1g	1b-
1D	.	1.f	1.a
1F	1c	.	.
.	.	2e	2g
=51	=51	=51	=51
1G	1B-	1.d	0g
0D	0A	.	.
.	.	2c	.
.	.	1d	1f#i
=52	=52	=52	=52
[0.Gl	[0.Gl	1B-	[0.gl
.	.	0e-i	.
=53	=53	=53	=53
0.G]	0.G]	0.dl	0.g]
==	==	==	==
*-	*-	*-	*-
!!!RDF**kern: l=long note in original notation
!!!RDF**kern: i=editorial accidental
!!!ENC:	Megan K. Eagen 2013/11/29
!!!END:	2013/11/29/
!!!EED:	Jesse Rodin
!!!EEV:	2014/02/23/
!!!ONB:	Translated from MusicXML and edited on 2014/02/23/ by Craig Sapp
!!muse2ps: C^@{COM}^i2I150v85,85,85,150Q16
